germany/municipalities/07134080.svg

<?xml version="1.0" encoding="UTF-8" standalone="no"?>
<!-- Created with Inkscape (http://www.inkscape.org/) -->

<svg
   xmlns:dc="http://purl.org/dc/elements/1.1/"
   xmlns:cc="http://creativecommons.org/ns#"
   xmlns:rdf="http://www.w3.org/1999/02/22-rdf-syntax-ns#"
   xmlns:svg="http://www.w3.org/2000/svg"
   xmlns="http://www.w3.org/2000/svg"
   xmlns:sodipodi="http://sodipodi.sourceforge.net/DTD/sodipodi-0.dtd"
   xmlns:inkscape="http://www.inkscape.org/namespaces/inkscape"
   width="192.21169mm"
   height="209.34363mm"
   viewBox="0 0 192.21169 209.34363"
   version="1.1"
   id="svg12056"
   inkscape:version="0.92.4 (5da689c313, 2019-01-14)"
   sodipodi:docname="DEU Schwollen COA.svg">
  <defs
     id="defs12050">
    <inkscape:path-effect
       effect="spiro"
       id="path-effect900"
       is_visible="true" />
    <inkscape:path-effect
       effect="spiro"
       id="path-effect878"
       is_visible="true" />
    <inkscape:path-effect
       effect="spiro"
       id="path-effect852"
       is_visible="true" />
    <inkscape:path-effect
       effect="spiro"
       id="path-effect852-3"
       is_visible="true" />
    <inkscape:path-effect
       effect="spiro"
       id="path-effect878-8"
       is_visible="true" />
    <inkscape:path-effect
       effect="spiro"
       id="path-effect900-8"
       is_visible="true" />
  </defs>
  <sodipodi:namedview
     id="base"
     pagecolor="#ffffff"
     bordercolor="#666666"
     borderopacity="1.0"
     inkscape:pageopacity="0.0"
     inkscape:pageshadow="2"
     inkscape:zoom="0.69260131"
     inkscape:cx="363.23469"
     inkscape:cy="395.61002"
     inkscape:document-units="mm"
     inkscape:current-layer="layer1"
     showgrid="false"
     inkscape:window-width="1366"
     inkscape:window-height="745"
     inkscape:window-x="-8"
     inkscape:window-y="-8"
     inkscape:window-maximized="1"
     fit-margin-top="0"
     fit-margin-left="0"
     fit-margin-right="0"
     fit-margin-bottom="0"
     inkscape:snap-midpoints="true"
     inkscape:snap-smooth-nodes="true"
     inkscape:snap-nodes="true"
     inkscape:object-paths="true" />
  <metadata
     id="metadata12053">
    <rdf:RDF>
      <cc:Work
         rdf:about="">
        <dc:format>image/svg+xml</dc:format>
        <dc:type
           rdf:resource="http://purl.org/dc/dcmitype/StillImage" />
        <dc:title />
      </cc:Work>
    </rdf:RDF>
  </metadata>
  <g
     inkscape:label="Ebene 1"
     inkscape:groupmode="layer"
     id="layer1"
     transform="translate(-1.3715956,-2.0263419)">
    <path
       style="fill:#009900;fill-opacity:1;fill-rule:evenodd;stroke:none;stroke-width:3.10444427;stroke-opacity:1"
       inkscape:connector-curvature="0"
       d="m 192.01835,3.5785623 -0.959,117.5806977 c -2.09267,49.45939 -43.43961,88.6308 -93.58194,88.65848 C 47.38023,209.75714 6.0178297,170.57159 3.8955197,121.15926 L 2.9365297,3.5785623 H 97.47516 Z"
       id="path10563-0-6-7-1-1"
       sodipodi:nodetypes="ccccccc" />
    <path
       inkscape:connector-curvature="0"
       style="fill:#ffffff;stroke:#000000;stroke-width:1.32291667;stroke-linecap:round;stroke-linejoin:round;stroke-miterlimit:4;stroke-dasharray:none;stroke-opacity:1"
       d="m 97.477181,9.2538076 a 8.5313852,8.764059 0 0 0 -8.531261,8.7638064 8.5313852,8.764059 0 0 0 0.69143,3.432348 l -0.225825,0.212907 c -1.01478,-0.651943 -2.049348,-1.272788 -3.102136,-1.861385 -1.354373,-0.757208 -2.793534,-1.476047 -4.343405,-1.55081 -1.414521,-0.06823 -2.81736,0.416494 -4.013192,1.175122 -1.19583,0.758628 -2.20331,1.780208 -3.12229,2.857707 -5.384935,6.31381 -7.911515,14.597155 -9.151895,22.802225 -1.301361,8.608468 -1.335937,17.362551 -0.930693,26.059392 0.176115,3.779533 0.4348,7.55509 0.775663,11.323338 l 6.204789,-0.155027 c -0.329925,-2.88495 -0.537163,-5.784255 -0.620633,-8.68681 -0.185161,-6.438686 0.256008,-12.979593 2.326989,-19.078938 1.580827,-4.655764 4.183398,-9.081849 8.065659,-12.099004 1.670468,-1.298228 3.628847,-2.34002 5.739701,-2.482019 1.175925,-0.0791 2.37422,0.12945 3.439065,0.634587 1.064844,0.50514 1.991405,1.309436 2.610178,2.312522 0.60036,0.973241 0.902327,2.106893 1.030427,3.243212 0.128101,1.13632 0.08966,2.283664 0.05529,3.426664 -0.239308,7.959934 -0.290944,15.925578 -0.155027,23.887948 l 3.257682,-0.775663 3.257163,0.775663 c 0.13592,-7.96237 0.0843,-15.928014 -0.15502,-23.887948 -0.0344,-1.143 -0.0723,-2.290344 0.0558,-3.426664 0.12811,-1.136319 0.42956,-2.269971 1.02992,-3.243212 0.61877,-1.003086 1.54533,-1.807382 2.61017,-2.312522 1.06485,-0.505137 2.26366,-0.713692 3.43959,-0.634587 2.11085,0.141999 4.06871,1.183791 5.73918,2.482019 3.88226,3.017155 6.48535,7.44324 8.06618,12.099004 2.07098,6.099345 2.51163,12.640252 2.32647,19.078938 -0.0835,2.902555 -0.29071,5.80186 -0.62063,8.68681 l 6.20478,0.155027 c 0.34087,-3.768248 0.59955,-7.543805 0.77567,-11.323338 0.40524,-8.696841 0.37067,-17.450924 -0.9307,-26.059392 -1.24038,-8.20507 -3.76696,-16.488415 -9.15189,-22.802225 -0.91898,-1.077499 -1.92594,-2.099079 -3.12177,-2.857707 -1.19584,-0.758628 -2.59919,-1.243355 -4.01371,-1.175122 -1.54987,0.07476 -2.98852,0.793602 -4.34289,1.55081 -1.05279,0.588597 -2.08787,1.209442 -3.10265,1.861385 l -0.21963,-0.206706 a 8.5313852,8.764059 0 0 0 0.68523,-3.438549 8.5313852,8.764059 0 0 0 -8.531782,-8.7638064 z"
       id="path850" />
    <path
       style="fill:none;stroke:#000000;stroke-width:1.32291667;stroke-linecap:round;stroke-linejoin:round;stroke-miterlimit:4;stroke-dasharray:none;stroke-opacity:1"
       d="M -104.26226,72.69593 V 15.768564 c -0.26175,-0.488766 -0.63626,-0.9167 -1.08602,-1.240929 -0.66688,-0.480757 -1.51166,-0.727728 -2.32674,-0.620464 -0.61823,0.08136 -1.20329,0.36162 -1.68044,0.763066 -0.47715,0.401445 -0.84872,0.920696 -1.11165,1.486118 -0.61891,1.330945 -0.61891,2.934747 0,4.265692"
       id="path876"
       inkscape:connector-curvature="0"
       inkscape:path-effect="#path-effect878"
       inkscape:original-d="M -104.26226,72.69593 V 15.768564 c 0,0 -0.6192,-0.9507 -1.08602,-1.240929 -0.68168,-0.423812 -1.54148,-0.786816 -2.32674,-0.620464 -1.16916,0.247681 -2.2762,1.171154 -2.79209,2.249184 -0.61378,1.282599 2.6e-4,2.559151 0,4.265692"
       sodipodi:nodetypes="ccaaac"
       transform="translate(201.73996)" />
    <path
       transform="matrix(-1,0,0,1,-6.78456,0)"
       style="fill:none;stroke:#000000;stroke-width:1.32291667;stroke-linecap:round;stroke-linejoin:round;stroke-miterlimit:4;stroke-dasharray:none;stroke-opacity:1"
       d="M -104.26226,72.69593 V 15.768564 c -0.26175,-0.488766 -0.63626,-0.9167 -1.08602,-1.240929 -0.66688,-0.480757 -1.51166,-0.727728 -2.32674,-0.620464 -0.61823,0.08136 -1.20329,0.36162 -1.68044,0.763066 -0.47715,0.401445 -0.84872,0.920696 -1.11165,1.486118 -0.61891,1.330945 -0.61891,2.934747 0,4.265692"
       id="path876-4"
       inkscape:connector-curvature="0"
       inkscape:path-effect="#path-effect878-8"
       inkscape:original-d="M -104.26226,72.69593 V 15.768564 c 0,0 -0.6192,-0.9507 -1.08602,-1.240929 -0.68168,-0.423812 -1.54148,-0.786816 -2.32674,-0.620464 -1.16916,0.247681 -2.2762,1.171154 -2.79209,2.249184 -0.61378,1.282599 2.6e-4,2.559151 0,4.265692"
       sodipodi:nodetypes="ccaaac" />
    <path
       style="fill:none;stroke:#000000;stroke-width:1.32291667;stroke-linecap:round;stroke-linejoin:miter;stroke-miterlimit:4;stroke-dasharray:none;stroke-opacity:1"
       d="m -104.26226,39.16597 c -1.0772,-2.727359 -2.94849,-5.13567 -5.32513,-6.853351 -2.01908,-1.45926 -4.47535,-2.432979 -6.96213,-2.28445 -1.72349,0.10294 -3.3928,0.741836 -4.8286,1.700742 -1.4358,0.958905 -2.64636,2.229412 -3.6565,3.629641 -1.73735,2.408271 -2.90228,5.226645 -3.37228,8.158751"
       id="path898"
       inkscape:connector-curvature="0"
       inkscape:path-effect="#path-effect900"
       inkscape:original-d="m -104.26226,39.16597 c -1.77478,-2.248456 -2.95994,-5.187413 -5.32513,-6.853351 -1.99684,-1.406484 -4.53781,-2.581502 -6.96213,-2.28445 -3.31536,0.406232 -6.33096,2.777673 -8.4851,5.330383 -1.89784,2.248984 -1.84905,5.402642 -3.37228,8.158751"
       sodipodi:nodetypes="caaac"
       transform="translate(201.73996)" />
    <path
       transform="matrix(-1,0,0,1,-6.78456,0)"
       style="fill:none;stroke:#000000;stroke-width:1.32291667;stroke-linecap:round;stroke-linejoin:miter;stroke-miterlimit:4;stroke-dasharray:none;stroke-opacity:1"
       d="m -104.26226,39.16597 c -1.0772,-2.727359 -2.94849,-5.13567 -5.32513,-6.853351 -2.01908,-1.45926 -4.47535,-2.432979 -6.96213,-2.28445 -1.72349,0.10294 -3.3928,0.741836 -4.8286,1.700742 -1.4358,0.958905 -2.64636,2.229412 -3.6565,3.629641 -1.73735,2.408271 -2.90228,5.226645 -3.37228,8.158751"
       id="path898-9"
       inkscape:connector-curvature="0"
       inkscape:path-effect="#path-effect900-8"
       inkscape:original-d="m -104.26226,39.16597 c -1.77478,-2.248456 -2.95994,-5.187413 -5.32513,-6.853351 -1.99684,-1.406484 -4.53781,-2.581502 -6.96213,-2.28445 -3.31536,0.406232 -6.33096,2.777673 -8.4851,5.330383 -1.89784,2.248984 -1.84905,5.402642 -3.37228,8.158751"
       sodipodi:nodetypes="caaac" />
    <path
       style="fill:#ffffff;fill-opacity:1;stroke:#000000;stroke-width:1.32291663;stroke-linecap:round;stroke-linejoin:round;stroke-miterlimit:4;stroke-dasharray:none;stroke-opacity:1;paint-order:markers fill stroke"
       d="M 59.750286,79.311029 A 37.840859,23.362617 0 0 0 97.496818,101.02805 37.840859,23.362617 0 0 0 135.20459,79.311029 Z"
       id="path841"
       inkscape:connector-curvature="0" />
    <path
       style="fill:#ff0000;fill-opacity:1;stroke:#000000;stroke-width:4.99999952;stroke-linecap:round;stroke-linejoin:round;stroke-miterlimit:4;stroke-dasharray:none;stroke-opacity:1;paint-order:markers fill stroke"
       d="M 9.4804688 443.12695 L 9.5390625 450.26562 C 11.213135 489.24194 19.352723 526.53214 32.898438 561.14844 L 127.07617 561.14844 L 127.07617 443.12695 L 9.4804688 443.12695 z M 127.07617 561.14844 L 127.07617 679.17188 L 245.15625 679.17188 L 245.15625 561.14844 L 127.07617 561.14844 z M 245.15625 561.14844 L 363.23438 561.14844 L 363.23438 443.12695 L 245.15625 443.12695 L 245.15625 561.14844 z M 363.23438 561.14844 L 363.23438 679.17188 L 481.31445 679.17188 L 481.31445 561.14844 L 363.23438 561.14844 z M 481.31445 561.14844 L 599.39258 561.14844 L 599.39258 443.12695 L 481.31445 443.12695 L 481.31445 561.14844 z M 599.39258 561.14844 L 599.39258 679.17188 L 617.01758 679.17188 C 650.01383 645.64847 676.30947 605.61722 693.66602 561.14844 L 599.39258 561.14844 z M 599.39258 679.17188 L 481.31445 679.17188 L 481.31445 765.29492 C 525.27063 749.87841 565.28862 726.10065 599.39258 695.89258 L 599.39258 679.17188 z M 363.23438 679.17188 L 245.15625 679.17188 L 245.15625 765.19922 C 282.14318 778.20611 321.9018 785.30352 363.23438 785.35352 L 363.23438 679.17188 z M 127.07617 679.17188 L 109.66992 679.17188 C 115.28245 684.86821 121.08731 690.37592 127.07617 695.68555 L 127.07617 679.17188 z "
       transform="matrix(0.26458333,0,0,0.26458333,1.3715956,2.0263419)"
       id="rect12837" />
    <path
       style="fill:#ffffff;fill-opacity:1;stroke:#000000;stroke-width:4.99999952;stroke-linecap:round;stroke-linejoin:round;stroke-miterlimit:4;stroke-dasharray:none;stroke-opacity:1;paint-order:markers fill stroke"
       d="M 127.07617 443.12695 L 127.07617 561.14844 L 245.15625 561.14844 L 245.15625 443.12695 L 127.07617 443.12695 z M 245.15625 561.14844 L 245.15625 679.17188 L 363.23438 679.17188 L 363.23438 561.14844 L 245.15625 561.14844 z M 363.23438 561.14844 L 481.31445 561.14844 L 481.31445 443.12695 L 363.23438 443.12695 L 363.23438 561.14844 z M 481.31445 561.14844 L 481.31445 679.17188 L 599.39258 679.17188 L 599.39258 561.14844 L 481.31445 561.14844 z M 599.39258 561.14844 L 693.66602 561.14844 C 707.17509 526.53718 715.28032 489.24778 716.92969 450.26562 L 716.98828 443.12695 L 599.39258 443.12695 L 599.39258 561.14844 z M 599.39258 679.17188 L 599.39258 695.89258 C 605.45934 690.51886 611.33738 684.94282 617.01758 679.17188 L 599.39258 679.17188 z M 481.31445 679.17188 L 363.23438 679.17188 L 363.23438 785.35352 C 404.5745 785.33069 444.33286 778.26528 481.31445 765.29492 L 481.31445 679.17188 z M 245.15625 679.17188 L 127.07617 679.17188 L 127.07617 695.68555 C 161.18504 725.92592 201.2056 749.74345 245.15625 765.19922 L 245.15625 679.17188 z M 127.07617 679.17188 L 127.07617 561.14844 L 32.898438 561.14844 C 50.297076 605.61095 76.635709 645.64439 109.66992 679.17188 L 127.07617 679.17188 z "
       transform="matrix(0.26458333,0,0,0.26458333,1.3715956,2.0263419)"
       id="rect12837-5" />
    <path
       style="fill:none;fill-rule:evenodd;stroke:#000000;stroke-width:3.10444427;stroke-opacity:1"
       inkscape:connector-curvature="0"
       d="m 192.01835,3.578564 -0.959,117.580696 c -2.09267,49.45939 -43.43961,88.6308 -93.581937,88.65848 C 47.380231,209.75714 6.0178292,170.57159 3.8955193,121.15926 L 2.9365293,3.578564 H 97.475161 Z"
       id="path10563-0-6-7-1"
       sodipodi:nodetypes="ccccccc" />
    <rect
       style="fill:#ffffff;fill-opacity:1;stroke:#000000;stroke-width:1.32291663;stroke-linecap:round;stroke-linejoin:round;stroke-miterlimit:4;stroke-dasharray:none;stroke-opacity:1;paint-order:markers fill stroke"
       id="rect837"
       width="55.280556"
       height="6.5810184"
       x="69.837158"
       y="105.8543" />
    <rect
       style="fill:#ffffff;fill-opacity:1;stroke:#000000;stroke-width:1.32291663;stroke-linecap:round;stroke-linejoin:round;stroke-miterlimit:4;stroke-dasharray:none;stroke-opacity:1;paint-order:markers fill stroke"
       id="rect839"
       width="26.762815"
       height="5.9229169"
       x="84.096031"
       y="99.931389" />
    <rect
       style="fill:#ffffff;fill-opacity:1;stroke:#000000;stroke-width:1.32291663;stroke-linecap:round;stroke-linejoin:round;stroke-miterlimit:4;stroke-dasharray:none;stroke-opacity:1;paint-order:markers fill stroke"
       id="rect846"
       width="89.94059"
       height="7.458488"
       x="52.507145"
       y="76.020348" />
    <rect
       style="fill:#ffffff;fill-opacity:1;stroke:#000000;stroke-width:1.32291667;stroke-linecap:round;stroke-linejoin:round;stroke-miterlimit:4;stroke-dasharray:none;stroke-opacity:1;paint-order:markers fill stroke"
       id="rect848"
       width="9.1939459"
       height="5.0454459"
       x="92.88047"
       y="70.974899" />
  </g>
</svg>

<svg xmlns="http://www.w3.org/2000/svg" width="726.469" height="791.22" viewBox="0 0 192.212 209.344"><path style="fill:#090;fill-opacity:1;fill-rule:evenodd;stroke:none;stroke-width:3.10444427;stroke-opacity:1" d="m192.018 3.579-.959 117.58c-2.092 49.46-43.44 88.631-93.582 88.659-50.097-.06-91.46-39.246-93.581-88.659L2.936 3.58h94.54z" transform="translate(-1.372 -2.026)"/><path style="fill:#fff;stroke:#000;stroke-width:1.32291667;stroke-linecap:round;stroke-linejoin:round;stroke-miterlimit:4;stroke-dasharray:none;stroke-opacity:1" d="M97.477 9.254a8.531 8.764 0 0 0-8.531 8.764 8.531 8.764 0 0 0 .691 3.432l-.225.213a59.07 59.07 0 0 0-3.103-1.862c-1.354-.757-2.793-1.476-4.343-1.55-1.415-.069-2.817.416-4.013 1.175-1.196.758-2.204 1.78-3.122 2.858-5.385 6.313-7.912 14.597-9.152 22.802-1.302 8.608-1.336 17.362-.931 26.06.176 3.779.435 7.554.776 11.322l6.204-.155c-.33-2.885-.537-5.784-.62-8.686-.185-6.44.256-12.98 2.327-19.08 1.58-4.655 4.183-9.081 8.065-12.098 1.67-1.299 3.63-2.34 5.74-2.482a6.966 6.966 0 0 1 3.44.634 6.189 6.189 0 0 1 2.61 2.313c.6.973.902 2.107 1.03 3.243.128 1.136.09 2.284.055 3.427-.24 7.96-.29 15.925-.155 23.888l3.258-.776 3.257.776c.136-7.963.084-15.928-.155-23.888-.035-1.143-.072-2.29.056-3.427.128-1.136.43-2.27 1.03-3.243a6.189 6.189 0 0 1 2.61-2.313 6.968 6.968 0 0 1 3.44-.634c2.11.142 4.068 1.183 5.738 2.482 3.883 3.017 6.486 7.443 8.067 12.099 2.07 6.099 2.511 12.64 2.326 19.079-.083 2.902-.29 5.801-.62 8.686l6.204.155c.341-3.768.6-7.543.776-11.323.405-8.697.37-17.45-.93-26.06-1.241-8.204-3.768-16.488-9.153-22.801-.919-1.078-1.926-2.1-3.121-2.858-1.196-.759-2.6-1.244-4.014-1.175-1.55.074-2.989.793-4.343 1.55a59.083 59.083 0 0 0-3.103 1.862l-.22-.207a8.531 8.764 0 0 0 .686-3.438 8.531 8.764 0 0 0-8.532-8.764z" transform="translate(-1.372 -2.026)"/><path style="fill:none;stroke:#000;stroke-width:1.32291667;stroke-linecap:round;stroke-linejoin:round;stroke-miterlimit:4;stroke-dasharray:none;stroke-opacity:1" d="M-104.262 72.696V15.769a3.675 3.675 0 0 0-1.086-1.241c-.667-.481-1.512-.728-2.327-.62a3.312 3.312 0 0 0-1.68.762c-.478.402-.85.92-1.112 1.486a5.132 5.132 0 0 0 0 4.266" transform="translate(200.368 -2.026)"/><path transform="matrix(-1 0 0 1 -8.156 -2.026)" style="fill:none;stroke:#000;stroke-width:1.32291667;stroke-linecap:round;stroke-linejoin:round;stroke-miterlimit:4;stroke-dasharray:none;stroke-opacity:1" d="M-104.262 72.696V15.769a3.675 3.675 0 0 0-1.086-1.241c-.667-.481-1.512-.728-2.327-.62a3.312 3.312 0 0 0-1.68.762c-.478.402-.85.92-1.112 1.486a5.132 5.132 0 0 0 0 4.266"/><path style="fill:none;stroke:#000;stroke-width:1.32291667;stroke-linecap:round;stroke-linejoin:miter;stroke-miterlimit:4;stroke-dasharray:none;stroke-opacity:1" d="M-104.262 39.166a15.567 15.567 0 0 0-5.325-6.853c-2.02-1.46-4.476-2.433-6.963-2.285-1.723.103-3.392.742-4.828 1.7-1.436.96-2.646 2.23-3.657 3.63a19.201 19.201 0 0 0-3.372 8.16" transform="translate(200.368 -2.026)"/><path transform="matrix(-1 0 0 1 -8.156 -2.026)" style="fill:none;stroke:#000;stroke-width:1.32291667;stroke-linecap:round;stroke-linejoin:miter;stroke-miterlimit:4;stroke-dasharray:none;stroke-opacity:1" d="M-104.262 39.166a15.567 15.567 0 0 0-5.325-6.853c-2.02-1.46-4.476-2.433-6.963-2.285-1.723.103-3.392.742-4.828 1.7-1.436.96-2.646 2.23-3.657 3.63a19.201 19.201 0 0 0-3.372 8.16"/><path style="fill:#fff;fill-opacity:1;stroke:#000;stroke-width:1.32291663;stroke-linecap:round;stroke-linejoin:round;stroke-miterlimit:4;stroke-dasharray:none;stroke-opacity:1;paint-order:markers fill stroke" d="M59.75 79.311a37.84 23.363 0 0 0 37.747 21.717 37.84 23.363 0 0 0 37.708-21.717z" transform="translate(-1.372 -2.026)"/><path style="fill:red;fill-opacity:1;stroke:#000;stroke-width:4.99999952;stroke-linecap:round;stroke-linejoin:round;stroke-miterlimit:4;stroke-dasharray:none;stroke-opacity:1;paint-order:markers fill stroke" d="m9.48 443.127.06 7.139c1.673 38.976 9.813 76.266 23.358 110.882h94.178V443.127H9.48zm117.596 118.021v118.024h118.08V561.148h-118.08zm118.08 0h118.078V443.127H245.156v118.021zm118.078 0v118.024h118.08V561.148h-118.08zm118.08 0h118.079V443.127H481.314v118.021zm118.079 0v118.024h17.625c32.996-33.524 59.291-73.555 76.648-118.024h-94.273zm0 118.024H481.314v86.123c43.957-15.417 83.975-39.194 118.079-69.402v-16.721zm-236.159 0H245.156v86.027c36.987 13.007 76.746 20.105 118.078 20.155V679.172zm-236.158 0H109.67a355.755 355.755 0 0 0 17.406 16.514v-16.514z" transform="scale(.26458)"/><path style="fill:#fff;fill-opacity:1;stroke:#000;stroke-width:4.99999952;stroke-linecap:round;stroke-linejoin:round;stroke-miterlimit:4;stroke-dasharray:none;stroke-opacity:1;paint-order:markers fill stroke" d="M127.076 443.127v118.021h118.08V443.127h-118.08zm118.08 118.021v118.024h118.078V561.148H245.156zm118.078 0h118.08V443.127h-118.08v118.021zm118.08 0v118.024h118.079V561.148H481.314zm118.079 0h94.273c13.51-34.61 21.614-71.9 23.264-110.882l.058-7.139H599.393v118.021zm0 118.024v16.72a355.09 355.09 0 0 0 17.625-16.72h-17.625zm-118.079 0h-118.08v106.182c41.34-.023 81.099-7.089 118.08-20.06v-86.122zm-236.158 0h-118.08v16.514c34.109 30.24 74.13 54.057 118.08 69.513v-86.027zm-118.08 0V561.148H32.898c17.4 44.463 43.738 84.496 76.772 118.024h17.406z" transform="scale(.26458)"/><path style="fill:none;fill-rule:evenodd;stroke:#000;stroke-width:3.10444427;stroke-opacity:1" d="m192.018 3.579-.959 117.58c-2.092 49.46-43.44 88.631-93.582 88.659-50.097-.06-91.46-39.246-93.581-88.659L2.936 3.58h94.54z" transform="translate(-1.372 -2.026)"/><path style="fill:#fff;fill-opacity:1;stroke:#000;stroke-width:1.32291663;stroke-linecap:round;stroke-linejoin:round;stroke-miterlimit:4;stroke-dasharray:none;stroke-opacity:1;paint-order:markers fill stroke" d="M69.837 105.854h55.281v6.581H69.837zM84.096 99.931h26.763v5.923H84.096zM52.507 76.02h89.941v7.458H52.507z" transform="translate(-1.372 -2.026)"/><path style="fill:#fff;fill-opacity:1;stroke:#000;stroke-width:1.32291667;stroke-linecap:round;stroke-linejoin:round;stroke-miterlimit:4;stroke-dasharray:none;stroke-opacity:1;paint-order:markers fill stroke" d="M92.88 70.975h9.194v5.045H92.88z" transform="translate(-1.372 -2.026)"/></svg>
